X: 1
T: the River Bend
C: Dan R. MacDonald
R: jig
Z: 2020 John Chambers <jc:trillian.mit.edu>
B: Trip to Windsor Collection V.2
M: 6/8
L: 1/8
K: Amix=g
f |\
"A"e2A "D"f2d | "A"ecA Ace | "G"g2d BAB | GBd gdB |\
"A"e2A "D"f2d | "A"ecA Ace | "G"g2e {e}dcd | "A"ecA A2 :: ^g |\
"A"a2{b}a aec | Ace "(D)"a2{g}f |
"G"g2{a}g {a}gdB | GBd gdB |\
[1 "A"a2{b}a aec | Ace "(D)"a2{g}f | "G"g2e {e}dcd | "A"ecA A2 :|\
[2 "C"=cBc "D"dcd | "C"efg "(D)"a2{g}f | "Em"g2e {e}dcd | "A"ecA A2 |]
